X: 42869
T: Wild Rover, The
R: waltz
M: 3/4
K: Gmajor
G|G>A G E<D B|BAB c5|B/c/ dBd c<A FDB|A G6 G|
G>A G E<D B|BAB c5|B/c/ dBd c<A F|DBAGFG|
A3 A3|F<D D4|BB B<A B|c5 B/c/|
d4 BG|FE5|E>D B5|A G5||

